X: 7185
T: Cider Street
R: reel
M: 4/4
K: Aminor
A2ed c~A3|GABc A~E3|D2CD E~G3|cdec Afec|
A2ed c~A3|GABc A~E3|D2CD E~G3|1 cdec Afec:|2 cdec .A2z2||
K:Cmaj
G2dc BGDG|(3FED CD FAcA|GABd cABG|F2DE F2dc|
B2dc BGDG|(3FED CD FAcA|dAAB cABG|1 (3FED CF G2 (3ABc:|2 (3FED CF .G2z2||

